X:1                          % number
T:Sakura                     % title
C:Anonymous                  % composer
O:Gerald Walker              % origin.
O:loulou2032@yahoo.com.sg
M:C                          % meter
L:1/4                        % length of shortest note
Q:                           % tempo
K:G                          % key
V:1                          % voice 1
e e f2 | e e f2 | e f g f | e f/e/ c2 | B G B c |
B B/G/ F2 | e f g f | e f/e/ c2 | B G B c | B B/G/ F2 | e e f2 |
e e f2 | B c f/e/ c | B2 z2 |] X:3                          % number
T:Kojo no Tsuki              % title
C:Kati                       % composer
O:Gerald Walker              % origin.
M:C                          % meter
L:1/4                        % length of shortest note
Q:                           % tempo
K:F                          % key
V:1                          % voice 1
A A d e | f e d2 | B B A G | A3 z | A A d e |
